packages/ffe-icons/icons/filled/md/account_tree.svg

<svg xmlns="http://www.w3.org/2000/svg" height="24" viewBox="0 -960 960 960" width="24"><path d="M610.001-190.769v-59.232h-87.693q-29.923 0-51.115-21.192-21.192-21.192-21.192-51.115v-327.693H349.999v59.232q0 25.308-17.73 43.038-17.73 17.73-43.038 17.73H150.769q-25.308 0-43.038-17.73-17.73-17.73-17.73-43.038v-178.462q0-25.308 17.73-43.038 17.73-17.73 43.038-17.73h138.462q25.308 0 43.038 17.73 17.73 17.73 17.73 43.038v59.232h260.002v-59.232q0-25.308 17.73-43.038 17.73-17.73 43.038-17.73h138.462q25.308 0 43.038 17.73 17.73 17.73 17.73 43.038v178.462q0 25.308-17.73 43.038-17.73 17.73-43.038 17.73H670.769q-25.308 0-43.038-17.73-17.73-17.73-17.73-43.038v-59.232H509.999v327.693q0 5.385 3.462 8.847 3.462 3.462 8.847 3.462h87.693v-59.232q0-25.308 17.73-43.038 17.73-17.73 43.038-17.73h138.462q25.308 0 43.038 17.73 17.73 17.73 17.73 43.038v178.462q0 25.308-17.73 43.038-17.73 17.73-43.038 17.73H670.769q-25.308 0-43.038-17.73-17.73-17.73-17.73-43.038Z"/></svg>

<svg xmlns="http://www.w3.org/2000/svg" height="24" viewBox="0 -960 960 960" width="24"><path d="M610-190.77V-250h-87.69q-29.92 0-51.12-21.19Q450-292.39 450-322.31V-650H350v59.23q0 25.31-17.73 43.04T289.23-530H150.77q-25.31 0-43.04-17.73T90-590.77v-178.46q0-25.31 17.73-43.04T150.77-830h138.46q25.31 0 43.04 17.73T350-769.23V-710h260v-59.23q0-25.31 17.73-43.04T670.77-830h138.46q25.31 0 43.04 17.73T870-769.23v178.46q0 25.31-17.73 43.04T809.23-530H670.77q-25.31 0-43.04-17.73T610-590.77V-650H510v327.69q0 5.39 3.46 8.85t8.85 3.46H610v-59.23q0-25.31 17.73-43.04T670.77-430h138.46q25.31 0 43.04 17.73T870-369.23v178.46q0 25.31-17.73 43.04T809.23-130H670.77q-25.31 0-43.04-17.73T610-190.77Z"/></svg>
